src/assets/images/bluesky-icon.svg

<svg width="36" height="32" viewBox="0 0 360 320" fill="none" xmlns="http://www.w3.org/2000/svg">
<path d="M254.896 184.158C252.81 183.926 250.733 183.645 248.671 183.315C250.773 183.574 252.849 183.855 254.896 184.158Z" fill="white"/>
<path d="M180 141.964C163.699 110.262 119.308 51.1817 78.0347 22.044C38.4971 -5.86834 23.414 -1.03207 13.526 3.43594C2.08093 8.60755 0 26.1785 0 36.5164C0 46.8542 5.66748 121.272 9.36416 133.694C21.5786 174.738 65.0603 188.607 105.104 184.156C107.151 183.852 109.227 183.572 111.329 183.312C109.267 183.642 107.19 183.924 105.104 184.156C46.4204 192.847 -5.69621 214.233 62.6582 290.33C137.848 368.18 165.705 273.637 180 225.702C194.295 273.637 210.76 364.771 295.995 290.33C360 225.702 313.58 192.85 254.896 184.158C252.81 183.926 250.733 183.645 248.671 183.315C250.773 183.574 252.849 183.855 254.896 184.158C294.94 188.61 338.421 174.74 350.636 133.697C354.333 121.275 360 46.8568 360 36.519C360 26.1811 357.919 8.61012 346.474 3.43851C336.586 -1.02949 321.503 -5.86576 281.965 22.0466C240.692 51.1843 196.301 110.262 180 141.964Z" fill="#295ef6"/>
</svg>

<svg xmlns="http://www.w3.org/2000/svg" viewBox="0 0 360 320"><path fill="#fff" d="M254.896 184.158a131 131 0 0 1-6.225-.843q3.154.388 6.225.843"/><path fill="#295ef6" d="M180 141.964c-16.301-31.702-60.692-90.782-101.965-119.92C38.497-5.868 23.414-1.032 13.526 3.436 2.081 8.608 0 26.179 0 36.516s5.667 84.756 9.364 97.178c12.215 41.044 55.696 54.913 95.74 50.462q3.071-.455 6.225-.844-3.094.495-6.225.844c-58.684 8.691-110.8 30.077-42.446 106.174 75.19 77.85 103.047-16.693 117.342-64.628 14.295 47.935 30.76 139.069 115.995 64.628 64.005-64.628 17.585-97.48-41.099-106.172a131 131 0 0 1-6.225-.843q3.154.388 6.225.843c40.044 4.452 83.525-9.418 95.74-50.461 3.697-12.422 9.364-86.84 9.364-97.178s-2.081-27.909-13.526-33.08c-9.888-4.468-24.971-9.305-64.509 18.608C240.692 51.184 196.301 110.262 180 141.964"/></svg>
